img/logos/twilio.svg

<?xml version="1.0" encoding="UTF-8" standalone="no"?>
<svg width="138px" height="41px" viewBox="0 0 138 41" version="1.1" xmlns="http://www.w3.org/2000/svg" xmlns:xlink="http://www.w3.org/1999/xlink">
    <!-- Generator: Sketch 45 (43475) - http://www.bohemiancoding.com/sketch -->
    <title>twilio-2</title>
    <desc>Created with Sketch.</desc>
    <defs></defs>
    <g id="Page-1" stroke="none" stroke-width="1" fill="none" fill-rule="evenodd" opacity="0.597423041">
        <g id="Envoy-R2" transform="translate(-773.000000, -1220.000000)" fill-rule="nonzero" fill="#222222">
            <g id="Group-22" transform="translate(298.000000, 1005.000000)">
                <g id="twilio-2" transform="translate(475.000000, 215.000000)">
                    <path d="M96.7652695,8.036 L89.4934132,8.036 C89.3281437,8.036 89.1628743,8.2 89.1628743,8.364 L89.1628743,12.546 C89.1628743,12.71 89.3281437,12.874 89.4934132,12.874 L96.7652695,12.874 C96.9305389,12.874 97.0958084,12.71 97.0958084,12.546 L97.0958084,8.364 C97.1784431,8.2 97.0131737,8.036 96.7652695,8.036 Z M96.6826347,14.268 L82.6347305,14.268 C82.4694611,14.268 82.2215569,14.432 82.1389222,14.596 L80.3209581,21.402 L80.2383234,21.73 L78.0898204,14.432 C78.0071856,14.268 77.8419162,14.104 77.594012,14.104 L72.1401198,14.104 C71.9748503,14.104 71.7269461,14.268 71.6443114,14.432 L69.5784431,21.238 L69.4958084,21.566 L69.4131737,21.402 L68.5868263,18.04 L67.6778443,14.678 C67.5952096,14.514 67.4299401,14.35 67.1820359,14.35 L56.1916168,14.35 L56.1916168,8.446 C56.1916168,8.282 55.9437126,8.036 55.6958084,8.118 L48.754491,10.25 C48.5065868,10.332 48.4239521,10.414 48.4239521,10.578 L48.4239521,14.268 L46.605988,14.268 C46.4407186,14.268 46.2754491,14.432 46.2754491,14.596 L46.2754491,19.844 C46.2754491,20.008 46.4407186,20.172 46.605988,20.172 L48.4239521,20.172 L48.4239521,26.568 C48.4239521,31.078 50.902994,33.21 55.4479042,33.21 C57.348503,33.21 59.1664671,32.8 60.405988,32.144 L60.405988,26.732 C60.405988,26.486 60.1580838,26.404 59.9928144,26.404 C59.2491018,26.732 58.6706587,26.814 58.0095808,26.814 C56.7700599,26.814 56.108982,26.322 56.108982,24.928 L56.108982,20.254 L60.0754491,20.254 C60.2407186,20.254 60.405988,20.09 60.405988,19.926 L60.405988,15.498 L65.611976,32.636 C65.6946108,32.8 65.8598802,32.964 66.1077844,32.964 L71.8922156,32.964 C72.057485,32.964 72.3053892,32.8 72.388024,32.636 L74.8670659,25.01 L76.1065868,28.946 L77.2634731,32.554 C77.3461078,32.718 77.5113772,32.882 77.7592814,32.882 L83.5437126,32.882 C83.708982,32.882 83.9568862,32.718 84.039521,32.554 L89.3281437,15.334 L89.3281437,32.554 C89.3281437,32.718 89.4934132,32.882 89.6586826,32.882 L96.6826347,32.882 C96.8479042,32.882 97.0131737,32.718 97.0131737,32.554 L97.0131737,14.678 C97.0131737,14.432 96.8479042,14.268 96.6826347,14.268 L96.6826347,14.268 Z M105.937725,8.036 L98.9137725,8.036 C98.748503,8.036 98.5832335,8.2 98.5832335,8.364 L98.5832335,32.554 C98.5832335,32.718 98.748503,32.882 98.9137725,32.882 L105.937725,32.882 C106.102994,32.882 106.268263,32.718 106.268263,32.554 L106.268263,8.364 C106.268263,8.2 106.102994,8.036 105.937725,8.036 Z M115.275449,8.036 L108.003593,8.036 C107.838323,8.036 107.673054,8.2 107.673054,8.364 L107.673054,12.546 C107.673054,12.71 107.838323,12.874 108.003593,12.874 L115.275449,12.874 C115.440719,12.874 115.605988,12.71 115.605988,12.546 L115.605988,8.364 C115.688623,8.2 115.523353,8.036 115.275449,8.036 Z M115.192814,14.268 L108.168862,14.268 C108.003593,14.268 107.838323,14.432 107.838323,14.596 L107.838323,32.554 C107.838323,32.718 108.003593,32.882 108.168862,32.882 L115.192814,32.882 C115.358084,32.882 115.523353,32.718 115.523353,32.554 L115.523353,14.678 C115.523353,14.432 115.358084,14.268 115.192814,14.268 L115.192814,14.268 Z M126.844311,13.858 C120.646707,13.858 116.267066,18.368 116.267066,23.616 L116.267066,23.698 C116.267066,28.946 120.646707,33.374 126.761677,33.374 C132.959281,33.374 137.338922,28.864 137.338922,23.616 L137.338922,23.534 C137.338922,18.286 132.959281,13.858 126.844311,13.858 Z M129.819162,23.616 C129.819162,25.42 128.579641,26.814 126.844311,26.814 C125.108982,26.814 123.786826,25.338 123.786826,23.534 L123.786826,23.452 C123.786826,21.648 125.026347,20.254 126.761677,20.254 C128.497006,20.254 129.819162,21.73 129.819162,23.616 Z M20.6586826,0 C9.25508982,0 0,9.184 0,20.5 C0,31.816 9.25508982,41 20.6586826,41 C32.0622754,41 41.3173653,31.816 41.3173653,20.5 C41.3173653,9.184 32.0622754,0 20.6586826,0 Z M20.6586826,35.588 C12.2299401,35.588 5.45389222,28.864 5.45389222,20.5 C5.45389222,12.136 12.2299401,5.412 20.6586826,5.412 C29.0874251,5.412 35.8634731,12.136 35.8634731,20.5 C35.8634731,28.864 29.0874251,35.588 20.6586826,35.588 Z" id="Shape"></path>
                    <ellipse id="Oval" cx="25.7820359" cy="15.416" rx="4.29700599" ry="4.264"></ellipse>
                    <ellipse id="Oval" cx="25.7820359" cy="25.584" rx="4.29700599" ry="4.264"></ellipse>
                    <ellipse id="Oval" cx="15.5353293" cy="25.584" rx="4.29700599" ry="4.264"></ellipse>
                    <ellipse id="Oval" cx="15.5353293" cy="15.416" rx="4.29700599" ry="4.264"></ellipse>
                </g>
            </g>
        </g>
    </g>
</svg>

<svg width="138" height="41" xmlns="http://www.w3.org/2000/svg"><g fill="#222" fill-rule="nonzero" opacity=".597"><path d="M96.765 8.036h-7.272c-.165 0-.33.164-.33.328v4.182c0 .164.165.328.33.328h7.272c.165 0 .33-.164.33-.328V8.364c.083-.164-.082-.328-.33-.328zm-.083 6.232H82.634c-.165 0-.413.164-.495.328l-1.818 6.806-.083.328-2.149-7.298c-.082-.164-.247-.328-.495-.328H72.14c-.166 0-.413.164-.496.328l-2.066 6.806-.083.328-.082-.164-.827-3.362-.909-3.362c-.082-.164-.248-.328-.495-.328h-10.99V8.446c0-.164-.248-.41-.496-.328l-6.942 2.132c-.247.082-.33.164-.33.328v3.69h-1.818c-.165 0-.33.164-.33.328v5.248c0 .164.165.328.33.328h1.818v6.396c0 4.51 2.479 6.642 7.024 6.642 1.9 0 3.719-.41 4.958-1.066v-5.412c0-.246-.248-.328-.413-.328a4.534 4.534 0 0 1-1.983.41c-1.24 0-1.9-.492-1.9-1.886v-4.674h3.966c.165 0 .33-.164.33-.328v-4.428l5.206 17.138c.083.164.248.328.496.328h5.784c.166 0 .413-.164.496-.328l2.48-7.626 1.239 3.936 1.157 3.608c.082.164.247.328.495.328h5.785c.165 0 .413-.164.496-.328l5.288-17.22v17.22c0 .164.165.328.33.328h7.025c.165 0 .33-.164.33-.328V14.678c0-.246-.165-.41-.33-.41zm9.255-6.232h-7.024c-.165 0-.33.164-.33.328v24.19c0 .164.165.328.33.328h7.024c.166 0 .331-.164.331-.328V8.364c0-.164-.165-.328-.33-.328zm9.338 0h-7.272c-.165 0-.33.164-.33.328v4.182c0 .164.165.328.33.328h7.272c.165 0 .33-.164.33-.328V8.364c.083-.164-.082-.328-.33-.328zm-.082 6.232h-7.024c-.166 0-.331.164-.331.328v17.958c0 .164.165.328.33.328h7.025c.165 0 .33-.164.33-.328V14.678c0-.246-.165-.41-.33-.41zm11.65-.41c-6.197 0-10.576 4.51-10.576 9.758v.082c0 5.248 4.38 9.676 10.495 9.676 6.197 0 10.577-4.51 10.577-9.758v-.082c0-5.248-4.38-9.676-10.495-9.676zm2.975 9.758c0 1.804-1.24 3.198-2.974 3.198-1.736 0-3.058-1.476-3.058-3.28v-.082c0-1.804 1.24-3.198 2.975-3.198s3.057 1.476 3.057 3.362zM20.658 0C9.254 0 0 9.184 0 20.5S9.255 41 20.66 41c11.403 0 20.658-9.184 20.658-20.5S32.062 0 20.658 0zm0 35.588c-8.428 0-15.205-6.724-15.205-15.088S12.23 5.412 20.658 5.412 35.863 12.136 35.863 20.5s-6.776 15.088-15.205 15.088z"/><ellipse cx="25.782" cy="15.416" rx="4.297" ry="4.264"/><ellipse cx="25.782" cy="25.584" rx="4.297" ry="4.264"/><ellipse cx="15.535" cy="25.584" rx="4.297" ry="4.264"/><ellipse cx="15.535" cy="15.416" rx="4.297" ry="4.264"/></g></svg>
